!!!COM: Schubert, Franz
!!!CNT: Deutscher
!!!TXO: Deutsch
!!!OTL: "Muth"
!!!OPR: Winterreise
!!!LYR: Mu2ller, Wilhelm
!!!OPS: Opus 89
!!!ONM: No. 22
!!!ODT: 1827/
!!NB: Vocal melody only encoded. "Urspruenglich in A-, spaeter unveraendert in G-moll."
**kern	**silbe
*clefG2	*
*k[]	*
*M2/4	*
*MM[geschwind]	*
=5	=5
{8e	{Fliegt
16a	der
16b	|
[4cc	Schnee
=6	=6
8cc]	|
8b	mir
8a	in's
8b	Ge-
=7	=7
4e}	-sieht,}
4r	.
=8	=8
{8.b	{schu2ttl'
16cc#	ich
16b	ihn
16a	|
16g#	her-
16f#	|
=9	=9
4g#	-un-
4e}	-ter.}
=12	=12
{8e	{Wenn
16a	mein
16b	|
[4cc	Herz
=13	=13
8cc]	|
8a	im
8dd	Bu-
8cc	-sen
=14	=14
4b}	spricht,}
4r	.
=15	=15
{8.a	{sing'
16cc#	ich
16ff#	hell
16ee	|
16cc#	und
16a	|
=16	=16
4b	mun-
4a}	-ter.}
=19	=19
*k[f#c#g#]	*
{8.b	{Lu-
16b	-stig
8b	in
8b	die
=20	=20
8cc#	Welt
8a	hin-
4b}	-ein}
=21	=21
{16b	{ge-
16ee	|
16dd#	-gen
16cc#	|
16b	Wind
16a	|
16g#	und
16f#	|
=22	=22
4g	Wet-
4e}	-ter!}
=25	=25
{8.b	{will
16b	lein
8b	Gott
16cc#	auf
16dd	|
=26	=26
8cc#	Er-
8a	-den
4b}	sein,}
=27	=27
{8.a	{sind
16cc#	wir
16ff#	sel-
16ee	|
16cc#	-ber
16a	|
=28	=28
4b	Go2t-
4a}	-ter!}
=31	=31
{8.b	{Lu-
16b	-stig
8b	in
16a	die
16b	|
=32	=32
8ccn	Welt
8a	hin-
4b}	-ein}
=33	=33
{8.ccn	{ge-
16ee	-gen
16dd	Wind
16ffn	|
16ee	und
16dd	|
=34	=34
4ccn	Wet-
4cn}	-ter!}
=37	=37
{8.b	{will
16b	kein
8b	Gott
16cc#	auf
16dd	|
=38	=38
8cc#	Er-
8a	-den
4b}	sein,}
=39	=39
{8a	{sind
16cc#	wir
16ee	|
16aa	sel-
16ee	|
16cc#	-ber
16a	|
=40	=40
4b	Go2t-
4a}	-ter!}
*-	*-
